!!!SOCIAL_FUNCTION:	songs with treatment of the sick
!!!PDT:	1943
!!!OTL: No_7_Two_Girls_on_a_Horse.krn
!!!REG: British Columbia
**kern
*staff1
=1-
*clefF4
*k[b-]
*M3/4
8A\L
8A\J
4A\
4A\
=2
4B-\
4B-\
4A\
=3
4B-\
8B-\L
8A\J
4A\
=4
4A\
2r
=5
4B-\
4B-\
4B-\
=6
4B-\
4B-\
4A\
=7
4B-\
4B-\
4A\
=8
4A\
2r
=9
8A\L
8A\J
4A\
4A\
=10
8B-\L
8A\J
4A\
4r
=11
8A\L
8A\J
4A\
4A\
=12
4B-\
4A\
4r
=13||
*M5/4
1r
4r
=14||
*M3/4
4B-\
4B-\
4A\
=15
4B-\
4B-\
4A\
=16
4B-\
8B-\L
8A\J
4A\
=17
4A\
2r
=18
2.r
=19
8B-\L
8A\J
4A\
4A\
=20
4B-\
4B-\
4A\
=21
4A\
2r
=22
8A\L
8A\J
4A\
4A\
=23
8B-\L
8A\J
4A\
4r
=24
2.r
=25
2.r
=26
2.r
=27
2.r
=28
8A\L
8A\J
4A\
4r
=29
8A\L
8A\J
4A\
4A\
=30
8B-\L
8A\J
4A\
4r
=31
2.r
=32
2r
8r
8A\
=33
4B-\
4B-\
4A\
=34
4B-\
4B-\
4A\
=35
4B-\
4B-\
4A\
=36
4A\
4A\
4r
=37
2.r
=38
2.r
=39
8A\L
8A\J
4A\
4A\
=40
4B-\
4B-\
4A\
=41
4A\
2r
=42
8A\L
8A\J
4A\
4A\
=43
4B-\
4A\
4r
=44||
2.r
=45
*M2/4
[2A\
=46
2A\]
=47
4A\
16G\
8r
16A\
=48
4G\
8G\L
8G\J
=49
8F#\L
16F#\Jk
16r
4A\
=50
16B-\
16r
8A\
4G\
=51||
*M3/4
2r
4B-\
=52
4B-\
8B-\L
8B-\J
8A\
8r
=53||
*M2/4
4B-\
8B-\L
8A\J
=54
8G\
8r
4A\
=55
16B-\
16r
8A\
(4G\
=56||
*M3/4
2G\)
4r
=57
4G\
8G\
8r
4A\
=58||
*M2/4
16B-\
16r
8A\
[4G\
=59
4G\]
4r
=60
2r
=61||
*M3/4
2.B-\
=62||
*M5/8
8B-\L
8B-\
8B-\
8.B-\
16B-\Jk
=63||
*M2/4
4B-\
4A\
=64||
*M3/4
2.r
=65||
*M5/8
8G\L
8G\
8G\
8.G\
16A\Jk
=66||
*M2/4
4A\
4G\
=67||
!!pagebreak:default
*M3/4
2r
4A\
=68||
*M5/8
8G\L
8G\
8G\
8G\
8G\J
=69||
*M3/4
2r
4A\
=70
24B-\LL
24B-\J
12B-\
12B-\J
2B-\
=71||
*M2/4
4B-\
8B-\L
8B-\J
=72||
*M3/4
4A\
8G\
8r
4A\
=73||
*M2/4
12B-\L
12B-\
12B-\J
8B-\L
8B-\J
=74
4A\
8B-\L
8A\J
=75||
*M3/4
4G\
4r
4A\
=76
16B-\
16r
8A\
4G\
4r
==
*-
